assets/Eight-pointed star/Flat/eight-pointed_star_flat.svg

<svg width="32" height="32" viewBox="0 0 32 32" fill="none" xmlns="http://www.w3.org/2000/svg">
<path d="M2 6C2 3.79086 3.79086 2 6 2H26C28.2091 2 30 3.79086 30 6V26C30 28.2091 28.2091 30 26 30H6C3.79086 30 2 28.2091 2 26V6Z" fill="#FF9F2E"/>
<path d="M15.7571 7.00058C15.8189 6.7459 16.1811 6.7459 16.2429 7.00058L17.45 11.9719C17.4899 12.1364 17.6784 12.2145 17.823 12.1264L22.1918 9.46467C22.4156 9.3283 22.6717 9.58442 22.5353 9.80824L19.8736 14.177C19.7855 14.3216 19.8636 14.5101 20.0281 14.55L24.9994 15.7571C25.2541 15.8189 25.2541 16.1811 24.9994 16.2429L20.0281 17.45C19.8636 17.4899 19.7855 17.6784 19.8736 17.823L22.5353 22.1918C22.6717 22.4156 22.4156 22.6717 22.1918 22.5353L17.823 19.8736C17.6784 19.7855 17.4899 19.8636 17.45 20.0281L16.2429 24.9994C16.1811 25.2541 15.8189 25.2541 15.7571 24.9994L14.55 20.0281C14.5101 19.8636 14.3216 19.7855 14.177 19.8736L9.80824 22.5353C9.58442 22.6717 9.3283 22.4156 9.46467 22.1918L12.1264 17.823C12.2145 17.6784 12.1364 17.4899 11.9719 17.45L7.00058 16.2429C6.7459 16.1811 6.7459 15.8189 7.00058 15.7571L11.9719 14.55C12.1364 14.5101 12.2145 14.3216 12.1264 14.177L9.46467 9.80824C9.3283 9.58442 9.58442 9.3283 9.80824 9.46467L14.177 12.1264C14.3216 12.2145 14.5101 12.1364 14.55 11.9719L15.7571 7.00058Z" fill="white"/>
</svg>

<svg xmlns="http://www.w3.org/2000/svg" width="32" height="32" fill="none"><path fill="#FF9F2E" d="M2 6a4 4 0 0 1 4-4h20a4 4 0 0 1 4 4v20a4 4 0 0 1-4 4H6a4 4 0 0 1-4-4V6Z"/><path fill="#fff" d="M15.757 7c.062-.254.424-.254.486 0l1.207 4.972a.25.25 0 0 0 .373.154l4.369-2.661c.224-.137.48.12.343.343l-2.661 4.369a.25.25 0 0 0 .154.373L25 15.757c.255.062.255.424 0 .486l-4.97 1.207a.25.25 0 0 0-.155.373l2.661 4.369c.137.224-.12.48-.343.343l-4.369-2.661a.25.25 0 0 0-.373.154L16.243 25c-.062.255-.424.255-.486 0l-1.207-4.97a.25.25 0 0 0-.373-.155l-4.369 2.661c-.224.137-.48-.12-.343-.343l2.661-4.369a.25.25 0 0 0-.154-.373L7 16.243c-.255-.062-.255-.424 0-.486l4.97-1.207a.25.25 0 0 0 .155-.373L9.465 9.808c-.137-.224.12-.48.343-.343l4.369 2.661a.25.25 0 0 0 .373-.154L15.757 7Z"/></svg>
